X:1
T:Zwölf Gesänge
T:Aus Novalis Hymnen an die Nacht
T:12. Aus Novalis Hymnen an die Nacht
T:Louise Reichardt
T:Novalis (Georg Friedrich Freiherr von Hardenberg)
T:Zwölf Gesänge
T:OpenScore (CC0) 
T:OpenScore (CC0) 
T:OpenScore (CC0) 
T:OpenScore (CC0) 
C:Louise Reichardt
Z:Novalis (Georg Friedrich Freiherr von Hardenberg)
Z:OpenScore (CC0)
%%score ( 1 2 ) { 3 | ( 4 5 6 ) }
L:1/8
Q:1/4=100
M:2/2
K:Eb
V:1 treble nm="Voice"
V:2 treble 
V:3 treble nm="Piano"
V:4 bass 
V:5 bass 
V:6 bass 
V:1
"^Recht gross vorgetragen doch nicht zu langsam." G2 | G4 F4 | (E4{B,)} B,2 z B, | E4 F4 | G6 z B | %5
w: Hin-|ü- ber|wall' ich und|je- de|Pein wird|
 B6 c2 | B4 A2 F2 | G4 F4 | E6 E2 | F3 B B2 =A B | (=B3 c) E D2 z | FG =A B dc B A | (G F2) E D4 | %13
w: einst ein|Sta- chel der|Wol- lust|seyn. Noch|we- nig Zei- ten, so|bin * ich los|und * lie- ge trun- * ken der|Lieb' * im Schooss.|
"_cresc." z4 z2 z[Q:1/4=110]"^Etwas lebhafter."!f! B | e4 E3 e | e4 d2 e2 |{=e} f4 B3 A | %17
w: Un-|end- li- ches|Le- ben wogt|mäch- tig in|
 (A2 G2) z2 G2 | c4 B3 c | B2 A2 z2 z =A | B4 B,3 _A | (A2 G2) z2 G2 | (=B4 =A2) B2 | c4 G3 G | %24
w: mir; * ich|schau- e von|o- ben her-|un- ter nach|dir. * An|je- * nem|Hü- gel ver-|
 (A4 G2) F2 | E6 E2 | =E4 E4 | F4 F3 F |[Q:1/4=100]"^rallentando" (^F4[Q:1/4=90] F_E) D C | %29
w: lischt * dein|Glanz, ein|Schat- ten|brin- get den|küh- * * len- den|
 (C4 =B,2) z2 | z4 z2"^dolce" !courtesy!_B2 | B4 G3 E | (B3 A) F3 G | E4 F3 F | G6 z2 | %35
w: Kranz, *|O|sau- ge, Ge-|lieb- * ter! ge-|wal- tig mich|an,|
 (B4 ed) c B | (B3 A) G2 c2 | B4 D4 | E4 z2 E2 | (DA) G F Fc B A | GF E D E3 E | A2 G F c2 B A | %42
w: dass * * ich ent-|schlum- * mern und|lie- ben|kann. Ich|füh- * le des Tod- * es ver-|jün- * gen- de Flut, zu|Bla- sam und Ä- ther ver-|
 A2 G A G2 z B | B2 E E e2 d c | B2 A B G2 E2 | E2 _D3/2 E/ _D C z C | (B, A2) G/ F/ B2 cd/e/ | %47
w: wan- delt mein Blut, ich|le- be bey Ta- ge voll|Glau- ben und Muth und|ster- be die Näch- te in|hei- * li- ger Gluth, in * *|
 (!turn!e3 G B2) A F |"^Clarinetto." E4 x4 | B3 A F3 G | E3 D/E/ F2 D2 | E4 z4 |] %52
w: hei- * * li- ger|Gluth.||||
V:2
 x2 | x8 | x8 | x8 | x8 | x8 | x8 | x8 | x8 | x8 | x8 | x8 | x8 | x8 | x8 | x8 | x8 | x8 | x8 | %19
 x8 | x8 | x8 | x8 | x8 | x8 | x8 | x8 | x8 | x8 | x8 | x8 | x8 | x8 | x8 | x8 | x8 | x8 | x8 | %38
 x8 | x8 | x8 | x8 | x8 | x8 | x8 | x8 | x8 | x8 | B4 G3 E | x8 | x8 | x8 |] %52
V:3
!mf! z2 | %1
 z/[I:staff +1] G,/B,/[I:staff -1]E/G/E/[I:staff +1]B,/G,/[I:staff -1] z/[I:staff +1] A,/B,/[I:staff -1]D/F/D/[I:staff +1]B,/A,/ | %2
[I:staff -1] z/[I:staff +1] G,/B,/[I:staff -1]E/G/E/[I:staff +1]B,/G,/[I:staff -1] z/[I:staff +1] B,/[I:staff -1]D/F/A/F/D/[I:staff +1]B,/ | %3
[I:staff -1] z/[I:staff +1] G,/B,/[I:staff -1]E/G/E/[I:staff +1]B,/G,/[I:staff -1] z/[I:staff +1] A,/B,/[I:staff -1]D/F/D/[I:staff +1]B,/A,/ | %4
[I:staff -1] z/[I:staff +1] G,/B,/[I:staff -1]E/G/E/[I:staff +1]B,/G,/[I:staff -1] z/[I:staff +1] G,/B,/[I:staff -1]E/G/E/[I:staff +1]B,/G,/ | %5
[I:staff -1] z/[I:staff +1] G,/B,/[I:staff -1]E/G/E/[I:staff +1]B,/G,/[I:staff -1] z/[I:staff +1] G,/B,/[I:staff -1]E/G/E/[I:staff +1]B,/G,/ | %6
[I:staff -1] z/[I:staff +1] C/[I:staff -1]E/F/A/F/E/[I:staff +1]C/[I:staff -1] z/[I:staff +1] B,/D/[I:staff -1]F/A/F/[I:staff +1]D/B,/ | %7
[I:staff -1] z/[I:staff +1] G,/B,/[I:staff -1]E/G/E/[I:staff +1]B,/G,/[I:staff -1] z/[I:staff +1] A,/B,/[I:staff -1]D/F/D/[I:staff +1]B,/A,/ | %8
[I:staff -1] z/[I:staff +1] G,/B,/[I:staff -1]E/G/E/[I:staff +1]B,/G,/[I:staff -1] z/[I:staff +1] G,/B,/[I:staff -1]E/G/E/[I:staff +1]B,/G,/ | %9
[I:staff -1] z/[I:staff +1] B,/[I:staff -1]D/F/B/F/D/[I:staff +1]B,/[I:staff -1] z/[I:staff +1] C/[I:staff -1]E/F/=A/F/E/[I:staff +1]C/ | %10
[I:staff -1] z/[I:staff +1] C/[I:staff -1]E/F/=A/F/E/[I:staff +1]C/[I:staff -1] z/[I:staff +1] B,/[I:staff -1]D/F/B/F/D/[I:staff +1]B,/ | %11
[I:staff -1] z/[I:staff +1] B,/[I:staff -1]D/F/B/F/D/[I:staff +1]B,/[I:staff -1] z/[I:staff +1] C/[I:staff -1]E/F/=A/F/E/[I:staff +1]C/ | %12
[I:staff -1] z/[I:staff +1] C/[I:staff -1]E/F/=A/F/E/[I:staff +1]C/[I:staff -1] z/[I:staff +1] B,/[I:staff -1]D/F/B/F/D/[I:staff +1]B,/ | %13
[I:staff -1] z/[I:staff +1] B,/[I:staff -1]D/F/B/F/D/[I:staff +1]B,/[I:staff -1] z/[I:staff +1] B,/[I:staff -1]D/F/ (6:4:6(_A/F/D/F/D/[I:staff +1]A,/) | %14
 (3(G,B,[I:staff -1]E) (3(GE[I:staff +1]B,) (3(G,B,[I:staff -1]E) (3(GE[I:staff +1]B,) | %15
 (3A,B,[I:staff -1]D(3FD[I:staff +1]B, (3A,B,[I:staff -1]D(3FD[I:staff +1]B, | %16
 (3A,B,[I:staff -1]D(3FD[I:staff +1]B, (3A,B,[I:staff -1]D(3FD[I:staff +1]B, | %17
 (3G,B,[I:staff -1]E(3GE[I:staff +1]B, (3G,B,[I:staff -1]E(3GE[I:staff +1]B, | %18
 (3C[I:staff -1]=EG(3cGE[I:staff +1] (3C[I:staff -1]EG(3cGE | %19
[I:staff +1] (3A,C[I:staff -1]F(3AF[I:staff +1]C (3A,C[I:staff -1]F(3AF[I:staff +1]C | %20
 (3B,[I:staff -1]DF(3AFD[I:staff +1] (3B,[I:staff -1]DF(3AFD | %21
[I:staff +1] (3G,B,[I:staff -1]E(3GE[I:staff +1]B, (3G,B,[I:staff -1]E(3GE[I:staff +1]B, | %22
 (3=B,[I:staff -1]DF(3GFD[I:staff +1] (3B,[I:staff -1]DF(3GFD | %23
[I:staff +1] (3G,C[I:staff -1]E(3GE[I:staff +1]C (3G,C[I:staff -1]E(3GE[I:staff +1]C | %24
 (3G,=B,[I:staff -1]D(3FD[I:staff +1]B, (3G,B,[I:staff -1]D(3FD[I:staff +1]B, | %25
 (3E,G,C[I:staff -1](3E[I:staff +1]CG, (3E,G,C[I:staff -1](3E[I:staff +1]CG, | %26
 (3G,B,C[I:staff -1](3=E[I:staff +1]CB, (3G,B,C[I:staff -1](3=E[I:staff +1]CB, | %27
 (3F,A,C[I:staff -1](3F[I:staff +1]CA, (3F,A,C[I:staff -1](3F[I:staff +1]CA, | %28
 (3=A,C[I:staff -1]_E(3^FE[I:staff +1]C (3A,C[I:staff -1]E(3FE[I:staff +1]C | %29
 (7:4:11=B,[I:staff -1]D^FGD[I:staff +1]B, (5:4:5G,/4D,/4=B,,/4D,,/4B,,,/4[I:staff -1] z [=B,DG][B,DG][B,DG] | %30
 z [CEA][CEA][CEA]!mp! z [DFA][DFA][DFA] | %31
 [EG][I:staff +1]B,[I:staff -1][EG][I:staff +1]B,[I:staff -1] [EG][I:staff +1]B,[I:staff -1][EG][I:staff +1]B, | %32
[I:staff -1] [DA][I:staff +1]B,[I:staff -1][DA][I:staff +1]B,[I:staff -1] [DA][I:staff +1]B,[I:staff -1][DA][I:staff +1]B, | %33
[I:staff -1] E[I:staff +1]B,[I:staff -1]E[I:staff +1]B,[I:staff -1] [DF][I:staff +1]B,[I:staff -1][DF][I:staff +1]B, | %34
[I:staff -1] [EG][I:staff +1]B,[I:staff -1][EG][I:staff +1]B,[I:staff -1] [EG][I:staff +1]B,[I:staff -1][FA][I:staff +1]B, | %35
[I:staff -1] [GB]E[GB]E [GB]E[GB]E | %36
 [FA][I:staff +1]B,[I:staff -1][FA][I:staff +1]B,[I:staff -1] [EG][EG][CEc][CEc] | %37
 [EGB][EGB][EGB][EGB] DDDD | %38
 E[I:staff +1]B,[I:staff -1]E[I:staff +1]B,[I:staff -1] E[I:staff +1]B,[I:staff -1]E[I:staff +1]B, | %39
[I:staff -1] D[I:staff +1]B,[I:staff -1]D[I:staff +1]B,[I:staff -1] D[I:staff +1]B,[I:staff -1]D[I:staff +1]B, | %40
[I:staff -1] D[I:staff +1]B,[I:staff -1]D[I:staff +1]B,[I:staff -1] E[I:staff +1]B,[I:staff -1]E[I:staff +1]B, | %41
[I:staff -1] D[I:staff +1]B,[I:staff -1]D[I:staff +1]B,[I:staff -1] D[I:staff +1]B,[I:staff -1]D[I:staff +1]B, | %42
[I:staff -1] C[I:staff +1]B,[I:staff -1]D[I:staff +1]B,[I:staff -1] EEEE | %43
 [EGB][EGB][EGB][EGB] [EAc][EAc][EAc][EAc] | [EGB][EGB][DFA][DFA] [EG][EG]EE | %45
 [_DE][DE][DE][DE] [CE][CE][CE][CE] |"_cresc." E=DDD [EB][EB][CEc][CE^F] | %47
 [EGB][EGB][EGB][EGB] DDDD | %48
 E[I:staff +1]B,[I:staff -1]E[I:staff +1]B,[I:staff -1] E[I:staff +1]B,[I:staff -1]E[I:staff +1]B, | %49
[I:staff -1] D[I:staff +1]B,[I:staff -1]D[I:staff +1]B,[I:staff -1] D[I:staff +1]B,[I:staff -1]D[I:staff +1]B, | %50
[I:staff -1] E4 F2 D2 | E4 z4 |] %52
V:4
 z2 | [E,,E,]4 [B,,,B,,]4 | [E,,E,]4 [B,,F,]4 | [E,,E,]4 [B,,F,]4 | [E,,E,]4 [E,,E,]4 | %5
 [E,,E,]4 [E,,E,]4 | [F,,F,]4 [B,,,B,,]4 | [B,,,B,,]4 [B,,,B,,]4 | [E,,E,]4 [E,,E,]4 | %9
 [B,,F,]4 [F,,F,]4 | [F,,F,]4 [B,,F,]4 | [B,,F,]4 [F,,F,]4 | [F,,F,]4 [B,,F,]4 | %13
 [B,,F,]4 [B,,F,]4 |!f! [E,,E,]4 [E,,E,]4 | [F,,F,]8 | [B,,,B,,]4 [B,,,B,,]4 | [E,,E,]8 | %18
 [C,,C,]4 [C,,C,]4 | [F,,F,]4 x4 | [B,,,B,,]4 [B,,,B,,]4 | [C,,C,]4 [C,,C,]4 | [G,,G,]8 | %23
 [C,,C,]8 | [G,,G,]8 | [C,,C,]8 | [C,,C,]8 | [C,,C,]8 | [C,,C,]8 | G,,2 x x [G,,,G,,]4 | %30
 F,4 _B,,4 | E,8 | B,,8 | [E,,E,]4 [B,,,B,,]4 | [E,,E,]8 | [E,,E,]8 | D,4 E,E,A,,A,, | %37
 B,,B,,B,,B,, B,,B,,B,,B,, | [E,,E,]2 [E,,E,]2 [E,,E,]2 [E,,E,]2 | [E,,E,]8 | %40
 [E,,E,]2 [E,,E,]2 [E,,E,]2 [E,,E,]2 | [E,,E,]4 [E,,E,]4 | [E,,E,]4 [E,,E,][E,,E,][E,,E,][E,,E,] | %43
 [E,,E,][E,,E,][E,,E,][E,,E,] [A,,A,][A,,A,][A,,A,][A,,A,] | %44
 [B,,B,][B,,B,][B,,B,][B,,B,] [E,,E,][E,,E,][E,,E,][E,,E,] | %45
 [G,B,][G,B,][G,B,][G,B,] A,,A,,A,,A,, | B,,[B,,A,][B,,A,][B,,A,] G,G,A,=A, | %47
 [B,,B,][B,,B,][B,,B,][B,,B,] B,,B,,B,,B,, | [E,,E,]8 | [B,,,B,,]8 | C,4 A,,2 B,,2 | E,4 z4 |] %52
V:5
 x2 | x8 | x8 | x8 | x8 | x8 | x8 | x8 | x8 | x8 | x8 | x8 | x8 | x8 | x8 | x8 | x8 | x8 | x8 | %19
 x8 | x8 | x8 | x8 | x8 | x8 | x8 | x8 | x8 | x8 | x8 | x8 | x8 | x8 | G,B,G,B, x4 | x8 | x8 | x8 | %37
 x4 [A,B,][A,B,][A,B,][A,B,] | G,B,G,B, G,B,G,B, | A,B,A,B, A,B,A,B, | A,B,A,B, G,B,G,B, | %41
 A,B,A,B, A,B,A,B, | A,B,A,B, x4 | x8 | x4 B,B,[G,B,][G,B,] | %45
 [E,,E,][E,,E,][E,,E,][E,,E,] A,A,A,A, | [G,B,]B,B,B, B,B, x2 | x4 [A,B,][A,B,][A,B,][A,B,] | %48
 G,B,G,B, G,B,G,B, | A,B,A,B, A,B,A,B, | [G,C]4 [A,C]2 [F,A,]2 | [G,B,]4 x4 |] %52
V:6
 x2 | x8 | x8 | x8 | x8 | x8 | x8 | x8 | x8 | x8 | x8 | x8 | x8 | x8 | x8 | x8 | x8 | x8 | x8 | %19
 x8 | x8 | x8 | x8 | x8 | x8 | x8 | x8 | x8 | x8 | x8 | x8 | x8 | x8 | x8 | x8 | x8 | x8 | x8 | %38
 x8 | x8 | x8 | x8 |[I:staff -1] x4[I:staff +1] [G,B,][G,B,][G,B,][G,B,] | x8 | x8 | x8 | x8 | x8 | %48
 x8 | x8 | x8 | x8 |] %52

